icon/pk/master.svg

<svg width="48" height="48" fill="none" xmlns="http://www.w3.org/2000/svg"><path d="M38 38V6a2 2 0 0 0-2-2H12a2 2 0 0 0-2 2v32" stroke="#000" stroke-width="4" stroke-linecap="round" stroke-linejoin="round"/><rect x="10" y="32" width="28" height="12" rx="6" fill="#2F88FF" stroke="#000" stroke-width="4" stroke-linecap="round" stroke-linejoin="round"/><path d="m20 16 4-4 4 4 4-4-3 11H19l-3-11 4 4Z" fill="#2F88FF" stroke="#000" stroke-width="4" stroke-linejoin="round"/><circle cx="32" cy="38" r="2" fill="#fff"/></svg>

<svg viewBox="0 0 48 48" fill="none" xmlns="http://www.w3.org/2000/svg" height="1em" width="1em">
  <path d="M38 38V6C38 4.89543 37.1046 4 36 4H12C10.8954 4 10 4.89543 10 6V38" stroke="black" stroke-width="4" stroke-linecap="round" stroke-linejoin="round"/>
  <rect x="10" y="32" width="28" height="12" rx="6" fill="#2F88FF" stroke="black" stroke-width="4" stroke-linecap="round" stroke-linejoin="round"/>
  <path d="M20 16L24 12L28 16L32 12L29 23H19L16 12L20 16Z" fill="#2F88FF" stroke="black" stroke-width="4" stroke-linejoin="round"/>
  <circle cx="32" cy="38" r="2" fill="white"/>
</svg>
